!!!COM: Anonymous
!!!OTL@@POL: Jezu mój, Jezu jedyny
!!!TXO: Polish
!!!ODT: 
!!!GTL: Hymnbook L 1642
!!!ARL: Biblioteka Diecezjalna w Sandomierzu 
!!!voices:	4
**kern	**text	**kern	**text	**kern	**text	**kern	**text
*staff4	*staff4	*staff3	*staff3	*staff2	*staff2	*staff1	*staff1
*I"Basso	*	*I"Canto III	*	*I"Canto II	*	*I"Canto I	*
=1-	=1-	=1-	=1-	=1-	=1-	=1-	=1-
*clefF4	*	*clefG2	*	*clefG2	*	*clefG2	*
*k[b-]	*	*k[b-]	*	*k[b-]	*	*k[b-]	*
*met(c|)	*	*met(c|)	*	*met(c|)	*	*met(c|)	*
*M2/2	*	*M2/2	*	*M2/2	*	*M2/2	*
2F\	Je-	2f/	Je-	2a/	Je-	2cc\	Je-
2C/	-zu	2e/	-zu	2g/	-zu	2cc\	-zu
=2	=2	=2	=2	=2	=2	=2	=2
!	!	!LO:TX:Y=34:t=[  ]	!	!	!	!	!
1F	m&oacute;j	1f	m&oacute;j	1a	m&oacute;j	1cc	m&oacute;j
=3	=3	=3	=3	=3	=3	=3	=3
1BB-	Je-	2.f/	Je-	1b-	Je-	2.dd\	Je-
.	.	4e/	.	.	.	4ee\	.
=4	=4	=4	=4	=4	=4	=4	=4
2AA/	-zu	2d/	-zu	2a/	-zu	2ff\	-zu
2BB-/	je-	4g/	je-	2g/	je-	2dd\	je-
.	.	4f/	.	.	.	.	.
=5	=5	=5	=5	=5	=5	=5	=5
[1C	-dy-	2e/	-dy-	[1g	-dy-	[1cc	-dy-
.	.	[2f/	.	.	.	.	.
=6	=6	=6	=6	=6	=6	=6	=6
1C]	.	2f/]	.	1g]	.	1cc]	.
.	.	2e/	.	.	.	.	.
=7	=7	=7	=7	=7	=7	=7	=7
1FF	-ny	1f	-ny	1a	-ny	1cc	-ny
=8	=8	=8	=8	=8	=8	=8	=8
2FF/	Wi-	2f/	Wi-	2a/	Wi-	2cc\	Wi-
2C/	-sisz	2e/	-sisz	2g/	-sisz	2cc\	-sisz
=9	=9	=9	=9	=9	=9	=9	=9
1FF	na	1f	na	1a	na	1cc	na
=10	=10	=10	=10	=10	=10	=10	=10
1BB-	krzy-	2.f/	krzy-	2b-\	krzy-	2.dd\	krzy-
.	.	.	.	2b-\	-żu	.	.
.	.	4g/	.	.	.	4ee\	.
=11	=11	=11	=11	=11	=11	=11	=11
2AA/	-żu	2a/	-żu	2a/	bez	2ff\	-żu
2BB-/	bez	2d/	bez	[2g/	wi-	2dd\	bez
=12	=12	=12	=12	=12	=12	=12	=12
[1C	wi-	2e/	wi-	1g_	.	[1cc	wi-
.	.	[2f/	.	.	.	.	.
=13	=13	=13	=13	=13	=13	=13	=13
1C]	.	2f/]	.	1g]	.	1cc]	.
.	.	2e/	.	.	.	.	.
=14	=14	=14	=14	=14	=14	=14	=14
1FF	-ny	1f	-ny	1a	-ny	1cc	-ny
=15	=15	=15	=15	=15	=15	=15	=15
1BB-	U-	1f	U-	1b-	U-	1dd	U-
=16	=16	=16	=16	=16	=16	=16	=16
2BB-/	-mie-	2f/	-mie-	2b-\	-mie-	2dd\	-mie-
2GG/	-rasz	2g/	-rasz	2b-\	-rasz	2dd\	-rasz
=17	=17	=17	=17	=17	=17	=17	=17
1C	dla	1g	dla	1cc	dla	1ee	dla
=18	=18	=18	=18	=18	=18	=18	=18
2C/	mnie	2g/	mnie	2cc\	mnie	2ee\	mnie
2F\	grze-	2a/	grze-	2cc\	grze-	2cc\	grze-
=19	=19	=19	=19	=19	=19	=19	=19
1D	-szne-	1f	-szne-	4a/	-szne-	1ff	-szne-
.	.	.	.	4g/	.	.	.
.	.	.	.	4a/	.	.	.
.	.	.	.	4b-\	.	.	.
=20	=20	=20	=20	=20	=20	=20	=20
1C	-go	1g	-go	1cc	-go	1ee	-go
=21	=21	=21	=21	=21	=21	=21	=21
2r	.	2r	.	2r	.	2r	.
2F\	Dla	2a/	Dla	2a/	Dla	2cc\	Dla
=22	=22	=22	=22	=22	=22	=22	=22
2D\	ro-	2f/	ro-	2a/	ro-	2dd\	ro-
2C/	-ba-	2g/	-ba-	2cc\	-ba-	2ee\	-ba-
=23	=23	=23	=23	=23	=23	=23	=23
4BB-/	-ka	4d/	-ka	2b-\	-ka	1ff	-ka
4AA/	.	4c/	.	.	.	.	.
4BB-/	.	4d/	.	4a/	.	.	.
4C/	.	4e/	.	4g/	.	.	.
=24	=24	=24	=24	=24	=24	=24	=24
4D\	nik-	4f/	nik-	4a/	nik-	2dd\	nik-
4E\	.	4g/	.	4g/	.	.	.
2F\	-czem-	4a/	-czem-	2f/	-czem-	2dd\	-czem-
.	.	4f/	.	.	.	.	.
=25	=25	=25	=25	=25	=25	=25	=25
[1C	-ne-	2g/	-ne-	2e/	-ne-	[1cc	-ne-
.	.	[2f/	.	2f/	.	.	.
=26	=26	=26	=26	=26	=26	=26	=26
1C]	.	2f/]	.	1g	.	1cc]	.
.	.	2e/	.	.	.	.	.
=27	=27	=27	=27	=27	=27	=27	=27
1FF	-go	1f	-go	1a	-go	1cc	-go
=28	=28	=28	=28	=28	=28	=28	=28
2r	.	2r	.	2r	.	2r	.
2F\	Dla	2a/	Dla	2a/	Dla	2cc\	Dla
=29	=29	=29	=29	=29	=29	=29	=29
2D\	ro-	2f/	ro-	2a/	ro-	2dd\	ro-
2C/	-ba-	2g/	-ba-	2cc\	-ba-	2ee\	-ba-
=30	=30	=30	=30	=30	=30	=30	=30
4BB-/	-ka	4d/	-ka	2b-\	-ka	1ff	-ka
4AA/	.	4c/	.	.	.	.	.
4BB-/	.	4d/	.	4a/	.	.	.
4C/	.	4e/	.	4g/	.	.	.
=31	=31	=31	=31	=31	=31	=31	=31
4D\	nik-	4f/	nik-	4a/	nik-	2dd\	nik-
4E\	.	4g/	.	4g/	.	.	.
2F\	-czem-	4a/	-czem-	2f/	-czem-	2dd\	-czem-
.	.	4f/	.	.	.	.	.
=32	=32	=32	=32	=32	=32	=32	=32
[1C	-ne-	2g/	-ne-	2e/	-ne-	[1cc	-ne-
.	.	[2f/	.	2f/	.	.	.
=33	=33	=33	=33	=33	=33	=33	=33
1C]	.	2f/]	.	1g	.	1cc]	.
.	.	2e/	.	.	.	.	.
=34	=34	=34	=34	=34	=34	=34	=34
[1FF	-go.	[1f	-go.	[1a	-go.	[1cc	-go.
=35	=35	=35	=35	=35	=35	=35	=35
1FF]	.	1f]	.	1a]	.	1cc]	.
==	==	==	==	==	==	==	==
*-	*-	*-	*-	*-	*-	*-	*-
!!!GTL: Hymnbook L 1642
!!!EFL: 7/39
!!!YEM: Creative Commons CC/BY/NC/SA 4.0
!!!ENC: Marcin Konik
!!!END: 2015-02-13 
!!!EED: Marcin Konik
!!!EEV: 
!!!ONB: Translated from MusicXML and edited by Marcin Konik
!!!CharacterEncoding: utf-8
!!!RDF**kern: i=editorial accidental
!!muse2ps: z14jc180F
!!title: @{OTL}, @{GTL}: @{pag}, ed. @{ENC}
